!!!OTL: Murr nur nit!
!!!ARE: Europa, Mitteleuropa, Deutschland
!!!SCT: A0199
!!!TXL: @@GMH
!!!YEM: Copyright 1995, estate of Helmut Schaffrath.
**kern	**text
!! Mixed meters:  3/2; 4/2; 6/2
*M4/2	*
*met(c|)	*
*clefC4	*
*k[]	*
*C:ion	*
=1	=1
!LO:TX:a:t=jon. mit Terʒenſchl.	!
{1c	Ein
2c	meid-
2c	-lein
=2	=2
2G	ſagt
2G	mir
2A	freundlich
2B	.
=3	=3
*M6/2	*
1c	ʒu,
2r}	.
{2c	wie
2B	ſie
2A	mich
=4	=4
*M4/2	*
*lig	*
1d	liebt
2B	.
*Xlig	*
2c	im
=5	=5
1A	her-
1G}	-tʒen,
=6	=6
{1c	Ich
2c	ſich
2c	ſie
=7	=7
2G	nit
2G	der-
2A	-glei-
2B	-chen
=8	=8
*M6/2	*
1c	thun,
2r}	.
{2c	al-
2B	-lein
2A	mit
=9	=9
*M4/2	*
*lig	*
1d	ir
2B	.
*Xlig	*
2c	ʒu
=10	=10
*M6/2	*
1A	ſcher-
1G	-tʒen.
2r}	.
{2E	Hat
=11	=11
*M4/2	*
2F	wol
2F	ſein
2E	fug,
2G	feins
=12	=12
*lig	*
2A	meid-
1c	.
*Xlig	*
2B	-lein
=13	=13
1c	klug,
2r}	.
{2c	merck
=14	=14
2B	was
2c	ich
1A	dich
=15	=15
*M3/2	*
*met(3)	*
1G}	bitt:
{2c	Ju
=16	=16
1c	ju,
2c	ju
=17	=17
1c	ju!
2c	ſeins
=18	=18
1A	meid-
2A/	-len,
=19	=19
2G	mur
1F	nur
=20	=20
1.E/ll}	nit!
==	==
!!!GTL: Liebeslieder
!!!AGN: Romanze, Ballade, Lied
!! Peter Schoeffer 1513 No. 4.
!!!ONB: ESAC (Essen Associative Code) Database: ALTDEU
!!!AMT: irregular
!!!AIN: vox
!!!EED: Helmut Schaffrath
!!!EEV: 1.0
!!!RDF**kern: l = terminal long
!!!AMD: Ionian
!!!URL-scan: https://rosdok.uni-rostock.de/mcrviewer/recordIdentifier/rosdok_ppn738218359/iview2/phys_0354.iview2?x=-495.6391625615763&y=1669.7549710713793&scale=0.4629418472063854&rotation=0&layout=singlePageLayout&logicalDiv=log_0009
!!!ENC: Anna Maria Matuszewska
!!!EEV: 2024/07/03
*-	*-
